dist/svgs/devui-icons/op/depend.svg

<?xml version="1.0" encoding="UTF-8"?>
<svg width="16px" height="16px" viewBox="0 0 16 16" version="1.1" xmlns="http://www.w3.org/2000/svg" xmlns:xlink="http://www.w3.org/1999/xlink">
    <title>操作/依赖关系</title>
    <desc>Created with Sketch.</desc>
    <g id="操作/依赖关系" stroke="none" stroke-width="1" fill="none" fill-rule="evenodd">
        <g id="依赖关系" fill="#293040">
            <path d="M4,10 C4,11.1045695 4.8954305,12 6,12 L9,12 L9,14 L6,14 C3.790861,14 2,12.209139 2,10 L0,10 L3,7 L6,10 L4,10 Z M12,6 C12,4.8954305 11.1045695,4 10,4 L7,4 L7,2 L10,2 C12.209139,2 14,3.790861 14,6 L16,6 L13,9 L10,6 L12,6 Z M3,6 C1.34314575,6 0,4.65685425 0,3 C0,1.34314575 1.34314575,0 3,0 C4.65685425,0 6,1.34314575 6,3 C6,4.65685425 4.65685425,6 3,6 Z M13,16 C11.3431458,16 10,14.6568542 10,13 C10,11.3431458 11.3431458,10 13,10 C14.6568542,10 16,11.3431458 16,13 C16,14.6568542 14.6568542,16 13,16 Z M13,14 C13.5522847,14 14,13.5522847 14,13 C14,12.4477153 13.5522847,12 13,12 C12.4477153,12 12,12.4477153 12,13 C12,13.5522847 12.4477153,14 13,14 Z" id="形状"></path>
        </g>
    </g>
</svg>

<svg xmlns="http://www.w3.org/2000/svg" viewBox="0 0 16 16"><path fill-rule="evenodd" d="M4 10a2 2 0 002 2h3v2H6a4 4 0 01-4-4H0l3-3 3 3H4zm8-4a2 2 0 00-2-2H7V2h3a4 4 0 014 4h2l-3 3-3-3h2zM3 6a3 3 0 110-6 3 3 0 010 6zm10 10a3 3 0 110-6 3 3 0 010 6zm0-2a1 1 0 100-2 1 1 0 000 2z"/></svg>
